X: 30286
T: Old Maids Of Galway, The
R: reel
M: 4/4
K: Eminor
f|eB~B2 eBdB|A2GA Bddg|eB~B2 eBdB|ABGA BGG2|
eB~B2 eBdB|A2GA BGGF|G2Bd egdB|ABGA BGG||
z|gbag egdg|bgag ea~a2|gbag egdB|ABGA BGG2|
gbag egdg|bgag ea~a2|g2fg egdB|ABGA BGG||

